siren-icons/delta.svg

<?xml version="1.0" encoding="UTF-8" standalone="no"?>
<svg
   width="40"
   height="60"
   version="1.1"
   id="svg1"
   sodipodi:docname="delta.svg"
   xml:space="preserve"
   inkscape:version="1.3 (0e150ed6c4, 2023-07-21)"
   xmlns:inkscape="http://www.inkscape.org/namespaces/inkscape"
   xmlns:sodipodi="http://sodipodi.sourceforge.net/DTD/sodipodi-0.dtd"
   xmlns="http://www.w3.org/2000/svg"
   xmlns:svg="http://www.w3.org/2000/svg"><defs
     id="defs1" /><sodipodi:namedview
     id="namedview1"
     pagecolor="#505050"
     bordercolor="#eeeeee"
     borderopacity="1"
     inkscape:showpageshadow="0"
     inkscape:pageopacity="0"
     inkscape:pagecheckerboard="0"
     inkscape:deskcolor="#505050"
     showgrid="true"
     inkscape:zoom="8"
     inkscape:cx="8.5625"
     inkscape:cy="18.0625"
     inkscape:window-width="1920"
     inkscape:window-height="1009"
     inkscape:window-x="1912"
     inkscape:window-y="-8"
     inkscape:window-maximized="1"
     inkscape:current-layer="svg1"><inkscape:grid
       id="grid1"
       units="px"
       originx="0"
       originy="0"
       spacingx="0.5"
       spacingy="0.5"
       empcolor="#0099e5"
       empopacity="0.30196078"
       color="#0099e5"
       opacity="0.14901961"
       empspacing="10"
       dotted="false"
       gridanglex="30"
       gridanglez="30"
       visible="true" /></sodipodi:namedview><path
     id="rect2"
     style="fill:#ffffff;stroke:none;stroke-width:2.48131;stroke-linecap:round;stroke-linejoin:round"
     d="M 28.5 0 L 12.5 8 L 12.5 10 L 28.5 18 L 28.5 0 z M 11.5 11 L 11.5 29 L 27.5 21 L 27.5 19 L 11.5 11 z M 28.5 22 L 12.5 30 L 12.5 32 L 28.5 40 L 28.5 22 z M 11.5 33 L 11.5 51 L 27.5 43 L 27.5 41 L 11.5 33 z M 21.75 46.871094 L 18.25 48.621094 L 18.25 60 L 21.75 60 L 21.75 46.871094 z " /></svg>

<svg width="40" height="60" xml:space="preserve" xmlns="http://www.w3.org/2000/svg"><path style="fill:#fff;stroke:none;stroke-width:2.48131;stroke-linecap:round;stroke-linejoin:round" d="m28.5 0-16 8v2l16 8V0zm-17 11v18l16-8v-2l-16-8zm17 11-16 8v2l16 8V22zm-17 11v18l16-8v-2l-16-8zm10.25 13.871-3.5 1.75V60h3.5V46.871z"/></svg>
